online-zoo/images/unknown-avatar.svg

<svg width="60" height="60" viewBox="0 0 60 60" fill="none" xmlns="http://www.w3.org/2000/svg">
<circle cx="30" cy="30" r="30" fill="#70CB0E"/>
<circle cx="30" cy="30" r="30" stroke="white"/>
<path d="M48.3225 12.4019C48.3098 14.0056 47.4611 15.4037 46.2016 16.1739C45.5352 16.5814 44.7533 16.8128 43.919 16.8054C41.5074 16.7852 39.5679 14.7804 39.5878 12.3276C39.5941 11.5409 39.8018 10.8038 40.1602 10.1658C40.9187 8.81545 42.3534 7.91034 43.9922 7.92503C46.4038 7.94522 48.3433 9.94914 48.3225 12.4019Z" fill="#585E60"/>
<path d="M46.2016 16.1734C45.5352 16.581 44.7533 16.8124 43.919 16.805C41.5074 16.7848 39.5679 14.78 39.5878 12.3272C39.5941 11.5405 39.8018 10.8034 40.1602 10.1654C42.581 11.693 44.6477 13.7491 46.2016 16.1734Z" fill="#414749"/>
<path d="M20.412 12.1659C20.3921 14.6177 18.4202 16.5895 16.0076 16.5693C15.2447 16.5629 14.5296 16.3582 13.9084 16.0039C12.5658 15.2365 11.6628 13.7686 11.6773 12.0924C11.6972 9.63962 13.6682 7.66783 16.0808 7.68894C17.7629 7.70271 19.2156 8.6831 19.9334 10.1069C20.2449 10.7238 20.4183 11.4241 20.412 12.1659Z" fill="#585E60"/>
<path d="M19.9334 10.1068C20.2449 10.7237 20.4183 11.4241 20.4119 12.1658C20.3921 14.6177 18.4201 16.5895 16.0076 16.5693C15.2446 16.5629 14.5295 16.3581 13.9083 16.0038C15.4694 13.6216 17.529 11.6049 19.9334 10.1068Z" fill="#414749"/>
<path d="M47.9703 26.8723C47.9703 36.067 41.2889 43.6756 32.5932 44.9541C31.7462 45.0781 30.8805 45.1425 29.9999 45.1425C26.164 45.1425 22.6092 43.9208 19.6911 41.8388C15.0584 38.5342 12.0295 33.0623 12.0295 26.8723C12.0295 16.7824 20.0755 8.60215 29.9999 8.60215C39.9244 8.60215 47.9703 16.7824 47.9703 26.8723Z" fill="#F9E8D4"/>
<path d="M35.3482 40.8374L32.5932 44.9541C31.7462 45.0781 30.8805 45.1425 30 45.1425C26.1641 45.1425 22.6093 43.9208 19.6912 41.8388C19.168 40.5991 18.8534 39.4616 18.6701 38.6345C18.5444 38.0705 18.6757 37.4903 19.0275 37.0418C19.3794 36.5951 19.9229 36.3283 20.4834 36.3283C20.8771 36.3283 21.255 36.4541 21.5762 36.6926C22.762 37.5708 24.4589 39.0556 25.8095 41.1451C25.8635 41.2294 25.9184 41.3145 25.9733 41.4007L32.1044 37.8172L35.3482 40.8374Z" fill="#EFCDB1"/>
<path d="M47.9704 26.8723C47.9704 36.9622 39.9244 45.1424 30 45.1424C29.6937 45.1424 29.3893 45.1348 29.0878 45.1197C38.5877 44.6352 46.145 36.6508 46.145 26.8723C46.145 17.0937 38.5877 9.10939 29.0878 8.62489C29.3893 8.60975 29.6937 8.60222 30 8.60222C39.9244 8.60213 47.9704 16.7824 47.9704 26.8723Z" fill="#EFCDB1"/>
<path d="M34.1932 23.3632C34.1932 23.3632 30.7828 24.5716 32.148 29.0275C33.5132 33.4834 36.6289 36.5487 39.5331 35.016C42.4373 33.4834 41.7478 27.3654 39.7925 24.672C37.8372 21.9786 34.1932 23.3632 34.1932 23.3632Z" fill="#585E60"/>
<path d="M25.8065 23.3632C25.8065 23.3632 29.217 24.5716 27.8518 29.0275C26.4866 33.4834 23.3709 36.5487 20.4667 35.016C17.5625 33.4834 18.2519 27.3654 20.2073 24.672C22.1626 21.9786 25.8065 23.3632 25.8065 23.3632Z" fill="#585E60"/>
<path d="M30 35.6617C31.0646 35.6617 31.9276 34.7843 31.9276 33.702C31.9276 32.6196 31.0646 31.7422 30 31.7422C28.9354 31.7422 28.0724 32.6196 28.0724 33.702C28.0724 34.7843 28.9354 35.6617 30 35.6617Z" fill="#8B5016"/>
<path d="M20.0319 38.3221C19.938 37.8985 20.4093 37.5841 20.7544 37.8398C21.7536 38.5798 23.3749 39.9638 24.6429 41.9249C24.8078 42.1795 24.9655 42.4332 25.1166 42.6829C25.3552 43.0783 25.5766 43.466 25.7792 43.8425C26.1049 44.4471 26.3808 45.0222 26.6011 45.5462L24.6717 46.8359C24.0914 46.2144 23.4569 45.428 22.8239 44.5284C22.6082 44.2217 22.3923 43.9029 22.1788 43.5717C21.9754 43.2571 21.7887 42.9401 21.6179 42.6235C20.7243 40.9698 20.2602 39.3512 20.0319 38.3221Z" fill="#009655"/>
<path d="M22.8237 44.5286L25.1165 42.6831C25.3551 43.0786 25.5765 43.4663 25.7791 43.8428C26.1048 44.4474 26.3806 45.0225 26.6009 45.5465L24.6715 46.8362C24.0914 46.2146 23.4568 45.4282 22.8237 44.5286Z" fill="#006B42"/>
<path d="M21.6178 42.6236C22.4735 42.8307 23.5823 43.1481 25.7792 43.8427C26.1049 44.4473 26.3807 45.0224 26.601 45.5463L24.6716 46.8361C23.8932 46.0028 23.0192 44.8732 22.1787 43.5719C21.9752 43.2571 21.7885 42.9402 21.6178 42.6236Z" fill="#006B42"/>
<path d="M15.2638 44.0598C14.8435 43.8435 14.974 43.2021 15.4442 43.173C16.6779 43.097 18.5616 43.098 20.5895 43.5245C21.5445 43.725 22.4426 43.9534 23.242 44.1917C23.6991 44.3276 24.1229 44.4669 24.5073 44.6067L24.143 46.3984C23.2461 46.3401 22.1724 46.2022 21.01 45.9882C20.7205 45.9346 20.4242 45.8759 20.1245 45.8127C18.0964 45.3864 16.3667 44.6273 15.2638 44.0598Z" fill="#00C37A"/>
<path d="M21.0101 45.9883L23.2421 44.1917C23.6992 44.3276 24.123 44.4669 24.5074 44.6067L24.1431 46.3984C23.2463 46.3401 22.1726 46.2023 21.0101 45.9883Z" fill="#009655"/>
<path d="M18.875 49.1168L32.8036 37.5696L35.3481 40.8374L21.4196 52.3845L18.875 49.1168Z" fill="#A4E869"/>
<path d="M18.875 49.1168L20.5608 47.7599C20.605 47.8071 20.6478 47.8573 20.6882 47.9093L22.9862 50.8604C23.0284 50.9147 23.0685 50.9708 23.1048 51.0281L21.4197 52.3845L18.875 49.1168Z" fill="#60DC4D"/>
<path d="M32.8043 37.5696L33.5374 38.511L19.609 50.058L18.876 49.1165L32.8043 37.5696Z" fill="#60DC4D"/>
<path d="M19.8358 48.5958L22.1334 51.5464C22.5005 52.0179 22.4222 52.7028 21.9585 53.076C21.4948 53.4492 20.8211 53.3697 20.454 52.8982L18.1564 49.9476C17.7893 49.4761 17.8675 48.7912 18.3313 48.418C18.795 48.0446 19.4687 48.1243 19.8358 48.5958Z" fill="#A4E869"/>
<path d="M34.833 36.4452C33.4069 36.4452 32.2509 37.6205 32.2509 39.0704C32.2509 40.5202 33.4069 41.6956 34.833 41.6956L36.455 41.4965V36.4452H34.833Z" fill="#F9E8D4"/>
<path d="M29.2427 9.30874C29.5162 9.2968 29.7638 9.29102 29.9999 9.29102C38.8226 9.29102 46.2104 16.004 47.1847 24.906C47.2233 25.258 47.5165 25.5184 47.8569 25.5184C47.8819 25.5184 47.9072 25.517 47.9326 25.5141C48.3043 25.4721 48.5721 25.1316 48.5308 24.7538C48.2306 22.0121 47.3468 19.3958 45.9631 17.07C47.7649 16.2721 48.983 14.4469 48.9997 12.4076C49.0114 11.0374 48.4974 9.74495 47.5524 8.76824C46.6075 7.79162 45.3451 7.24754 43.9979 7.23625C41.9158 7.21945 40.053 8.50497 39.2827 10.4287C36.4794 8.7911 33.2871 7.91407 29.9999 7.91407C29.7443 7.91407 29.4777 7.92022 29.1846 7.93307C28.811 7.94941 28.5211 8.27061 28.5371 8.65037C28.5531 9.03032 28.8682 9.32581 29.2427 9.30874ZM43.9866 8.61319C44.9722 8.62146 45.8957 9.01939 46.5867 9.73376C47.2779 10.4481 47.6539 11.3935 47.6454 12.3959C47.6326 13.9698 46.6423 15.3697 45.2041 15.8964C44.4154 14.7688 43.5025 13.7229 42.4745 12.7814C41.8346 12.1954 41.1596 11.6587 40.4552 11.173C40.9575 9.64214 42.3776 8.59887 43.9866 8.61319Z" fill="black"/>
<path d="M47.9812 27.0106C47.6043 26.9914 47.2911 27.2879 47.2746 27.6678C46.9 36.2226 40.4348 43.2202 32.2346 44.3066L34.5681 42.372C34.6556 42.3791 34.7438 42.3838 34.8331 42.3838C35.2072 42.3838 35.5103 42.0756 35.5103 41.6953C35.5103 41.315 35.2072 41.0068 34.8331 41.0068C33.7828 41.0068 32.9282 40.138 32.9282 39.0701C32.9282 38.0023 33.7828 37.1334 34.8331 37.1334C35.2072 37.1334 35.5103 36.8252 35.5103 36.4449C35.5103 36.0646 35.2072 35.7565 34.8331 35.7565C33.6923 35.7565 32.6872 36.3559 32.1047 37.2607L30.6773 38.4441V36.2589C31.7862 35.955 32.6049 34.924 32.6049 33.702C32.6049 32.2417 31.4364 31.0536 30.0001 31.0536C28.5637 31.0536 27.3953 32.2416 27.3953 33.702C27.3953 34.924 28.214 35.9549 29.3229 36.2589V39.5667L25.7943 42.4919C25.6056 42.1748 25.4106 41.8586 25.209 41.5468C23.9154 39.5465 22.2894 38.1238 21.1527 37.2824C20.7652 36.9957 20.2563 36.9833 19.8563 37.2507C19.4565 37.5179 19.2661 37.9978 19.3714 38.4734C19.5502 39.2801 19.8408 40.317 20.3028 41.4343C15.571 38.1847 12.7069 32.7779 12.7069 26.8721C12.7069 18.5496 18.5193 11.3046 26.5274 9.64521C26.8939 9.56929 27.1304 9.20569 27.0557 8.83308C26.9809 8.46048 26.6233 8.21979 26.2569 8.29598C24.3315 8.69493 22.4862 9.40709 20.7899 10.3888C20.084 8.40449 18.2115 7.01799 16.0866 7C16.0716 7.00028 16.0568 7.00018 16.0419 7.00018C14.7108 7.00018 13.4569 7.52195 12.5069 8.47205C11.5463 9.4327 11.0112 10.7163 11.0002 12.0864C10.9825 14.2237 12.2489 16.1067 14.151 16.8841C12.3344 19.8668 11.3526 23.3333 11.3526 26.8724C11.3526 30.4254 12.3253 33.8893 14.1655 36.8899C15.5824 39.2003 17.4675 41.166 19.6819 42.664C17.9879 42.4116 16.4586 42.4212 15.4028 42.4855C14.8825 42.518 14.4622 42.8884 14.3569 43.4072C14.2516 43.9259 14.4933 44.435 14.9577 44.6737C16.0884 45.256 17.8789 46.0433 19.9875 46.4871C20.2557 46.5433 20.5214 46.5949 20.7856 46.6443L19.6182 47.6121C19.4843 47.5605 19.344 47.5234 19.198 47.5061C18.7342 47.4517 18.2771 47.5834 17.911 47.8781C17.5449 48.1729 17.3136 48.5948 17.2597 49.0664C17.2058 49.538 17.3357 50.0026 17.6255 50.3749L19.9232 53.3256C20.2131 53.6978 20.6281 53.933 21.092 53.9879C21.1607 53.996 21.2293 54 21.2973 54C21.6892 54 22.0672 53.867 22.379 53.6158C22.7452 53.3212 22.9765 52.8992 23.0304 52.4276C23.049 52.265 23.0442 52.1036 23.0201 51.9461L30.4149 45.8154C30.4473 45.8203 30.4802 45.8236 30.5139 45.8236C30.5203 45.8236 30.5268 45.8235 30.5333 45.8233C35.2557 45.6884 39.7124 43.756 43.0825 40.3817C46.4487 37.0113 48.4181 32.5179 48.6277 27.7291C48.6442 27.3492 48.3548 27.0275 47.9812 27.0106ZM28.7495 33.7022C28.7495 33.0012 29.3104 32.4308 29.9999 32.4308C30.6894 32.4308 31.2503 33.0012 31.2503 33.7022C31.2503 34.4032 30.6894 34.9735 29.9999 34.9735C29.3104 34.9734 28.7495 34.4032 28.7495 33.7022ZM12.3544 12.0979C12.3626 11.0955 12.7541 10.1564 13.4567 9.45363C14.1594 8.75083 15.0882 8.36722 16.0752 8.37722C17.7286 8.39108 19.1731 9.53689 19.6039 11.1368C18.1172 12.1529 16.7696 13.3868 15.6156 14.8073C15.3776 15.1001 15.1497 15.4001 14.9305 15.706C13.3896 15.2139 12.3407 13.7615 12.3544 12.0979ZM33.058 41.8472L22.3544 50.721L20.6505 48.5329L31.5969 39.4584C31.7122 40.4579 32.2664 41.3224 33.058 41.8472ZM24.0771 42.3034C24.3047 42.6555 24.524 43.0131 24.7336 43.3714L23.5415 44.3595C23.2713 43.9846 23.0041 43.5955 22.744 43.194C21.707 41.5893 21.1339 39.8951 20.8374 38.768C21.7372 39.4914 23.0387 40.6976 24.0771 42.3034ZM20.2613 45.1387C18.7303 44.8164 17.3758 44.2977 16.352 43.8264C17.4783 43.8086 18.9252 43.8778 20.4526 44.1986C20.9834 44.3103 21.5103 44.4344 22.0239 44.5674C22.178 44.793 22.3335 45.0146 22.4904 45.231L22.1832 45.4856C21.5614 45.3915 20.9171 45.2759 20.2613 45.1387ZM21.6849 52.2685C21.6728 52.3747 21.6207 52.4698 21.5382 52.5363C21.4557 52.6028 21.3527 52.6325 21.2482 52.62C21.1438 52.6077 21.0502 52.5548 20.9849 52.4709L18.6872 49.5201C18.622 49.4362 18.5927 49.3316 18.6048 49.2254C18.617 49.1192 18.6691 49.0241 18.7515 48.9576C18.8218 48.9011 18.9069 48.8711 18.9952 48.8711C19.0106 48.8711 19.026 48.8721 19.0414 48.8739C19.1459 48.8862 19.2395 48.9392 19.3047 49.0231L21.6024 51.9738C21.6678 52.0576 21.6971 52.1622 21.6849 52.2685Z" fill="black"/>
<path d="M31.5014 29.2322C32.488 32.4518 34.2986 34.892 36.3452 35.7595C36.8861 35.9888 37.4336 36.1032 37.9753 36.1031C38.6137 36.1031 39.244 35.9442 39.8451 35.6269C40.8912 35.0748 41.6215 34.0068 41.9569 32.538C42.5456 29.9598 41.8343 26.325 40.3374 24.263C38.1045 21.187 34.1245 22.6543 33.9561 22.7182L33.9562 22.7183C33.6951 22.8195 30.006 24.3509 31.5014 29.2322ZM33.1506 25.0018C33.6981 24.2849 34.4132 24.0144 34.4204 24.0117C34.4232 24.0106 34.4263 24.0096 34.4287 24.0087C34.5585 23.9601 37.6249 22.8452 39.2477 25.0809C40.5151 26.8268 41.1386 30.0323 40.6376 32.2266C40.4681 32.9688 40.0848 33.9492 39.2212 34.4049C38.4668 34.803 37.6744 34.8313 36.8664 34.4886C35.2105 33.7867 33.6503 31.6157 32.7945 28.8227C32.3078 27.2339 32.4276 25.9483 33.1506 25.0018Z" fill="black"/>
<path d="M26.0438 22.7183C25.8754 22.6543 21.8955 21.1871 19.6625 24.2631C19.1601 24.9552 18.7253 25.862 18.405 26.8853C18.2916 27.2476 18.4886 27.6348 18.845 27.7501C19.2013 27.8654 19.5822 27.665 19.6956 27.3029C19.9715 26.4214 20.3369 25.653 20.7523 25.0809C22.3751 22.8454 25.4415 23.9601 25.5697 24.008C25.5744 24.0099 25.5791 24.0115 25.5838 24.0133C25.6979 24.0537 28.3624 25.046 27.2054 28.8228C26.3496 31.6158 24.7894 33.7868 23.1334 34.4888C22.3254 34.8312 21.5331 34.8032 20.7788 34.4051C19.6721 33.821 19.0835 32.1748 19.2043 30.0016C19.2253 29.622 18.9397 29.2969 18.5664 29.2754C18.1923 29.254 17.8731 29.5443 17.852 29.924C17.698 32.6947 18.5373 34.7735 20.1548 35.6271C20.7559 35.9443 21.386 36.1033 22.0245 36.1033C22.5661 36.1033 23.1138 35.9889 23.6546 35.7596C25.7011 34.8921 27.5119 32.4519 28.4983 29.2323C29.994 24.3509 26.3047 22.8195 26.0438 22.7183Z" fill="black"/>
<path d="M33.9404 29.6156C34.3144 29.6156 34.6175 29.3074 34.6175 28.9271V28.869C34.6175 28.4887 34.3144 28.1805 33.9404 28.1805C33.5663 28.1805 33.2632 28.4887 33.2632 28.869V28.9271C33.2632 29.3074 33.5663 29.6156 33.9404 29.6156Z" fill="black"/>
<path d="M26.7367 28.9271V28.869C26.7367 28.4887 26.4335 28.1805 26.0595 28.1805C25.6855 28.1805 25.3823 28.4887 25.3823 28.869V28.9271C25.3823 29.3074 25.6855 29.6156 26.0595 29.6156C26.4335 29.6156 26.7367 29.3074 26.7367 28.9271Z" fill="black"/>
</svg>

<svg width="60" height="60" fill="none" xmlns="http://www.w3.org/2000/svg"><circle cx="30" cy="30" r="30" fill="#70CB0E"/><circle cx="30" cy="30" r="30" stroke="#fff"/><path d="M48.322 12.402a4.453 4.453 0 01-2.12 3.772 4.287 4.287 0 01-2.283.631c-2.412-.02-4.351-2.025-4.331-4.477a4.475 4.475 0 01.572-2.162c.759-1.35 2.193-2.256 3.832-2.241 2.412.02 4.351 2.024 4.33 4.477z" fill="#585E60"/><path d="M46.202 16.173a4.286 4.286 0 01-2.283.632c-2.412-.02-4.351-2.025-4.331-4.478a4.475 4.475 0 01.572-2.162 19.637 19.637 0 016.042 6.008z" fill="#414749"/><path d="M20.412 12.166c-.02 2.452-1.992 4.424-4.404 4.403a4.295 4.295 0 01-2.1-.565 4.453 4.453 0 01-2.23-3.912c.02-2.452 1.99-4.424 4.403-4.403 1.682.014 3.135.994 3.852 2.418.312.617.485 1.317.479 2.059z" fill="#585E60"/><path d="M19.933 10.107a4.47 4.47 0 01.479 2.059c-.02 2.452-1.992 4.424-4.404 4.403a4.295 4.295 0 01-2.1-.565 19.622 19.622 0 016.025-5.897z" fill="#414749"/><path d="M47.97 26.872c0 9.195-6.681 16.804-15.377 18.082-.847.124-1.713.188-2.593.188-3.836 0-7.39-1.221-10.309-3.303-4.633-3.305-7.661-8.777-7.661-14.967 0-10.09 8.046-18.27 17.97-18.27s17.97 8.18 17.97 18.27z" fill="#F9E8D4"/><path d="M35.348 40.837l-2.755 4.117c-.847.124-1.713.188-2.593.188-3.836 0-7.39-1.221-10.309-3.303a18.79 18.79 0 01-1.02-3.204 1.9 1.9 0 01.357-1.593 1.87 1.87 0 011.455-.714c.394 0 .772.126 1.093.365 1.186.878 2.883 2.363 4.233 4.452l.164.256 6.131-3.584 3.244 3.02z" fill="#EFCDB1"/><path d="M47.97 26.872c0 10.09-8.046 18.27-17.97 18.27-.306 0-.61-.007-.912-.022 9.5-.485 17.057-8.47 17.057-18.248S38.588 9.11 29.088 8.625c.301-.015.606-.023.912-.023 9.924 0 17.97 8.18 17.97 18.27z" fill="#EFCDB1"/><path d="M34.193 23.363s-3.41 1.209-2.045 5.665c1.365 4.455 4.48 7.52 7.385 5.988 2.904-1.533 2.215-7.65.26-10.344-1.956-2.693-5.6-1.309-5.6-1.309zm-8.387 0s3.411 1.209 2.046 5.665c-1.365 4.455-4.481 7.52-7.385 5.988-2.904-1.533-2.215-7.65-.26-10.344 1.956-2.693 5.6-1.309 5.6-1.309z" fill="#585E60"/><path d="M30 35.662c1.065 0 1.928-.878 1.928-1.96 0-1.082-.863-1.96-1.928-1.96s-1.928.878-1.928 1.96c0 1.082.863 1.96 1.928 1.96z" fill="#8B5016"/><path d="M20.032 38.322c-.094-.424.377-.738.722-.482 1 .74 2.62 2.124 3.889 4.085a29.246 29.246 0 011.136 1.918c.326.604.602 1.18.822 1.703l-1.93 1.29a21.89 21.89 0 01-1.847-2.308 28.592 28.592 0 01-.645-.956c-.204-.315-.39-.632-.561-.949a16.938 16.938 0 01-1.586-4.3z" fill="#009655"/><path d="M22.824 44.529l2.292-1.846c.24.396.46.783.663 1.16.326.604.602 1.18.822 1.703l-1.93 1.29a21.94 21.94 0 01-1.847-2.307z" fill="#006B42"/><path d="M21.618 42.624c.856.207 1.964.524 4.161 1.219.326.604.602 1.18.822 1.703l-1.93 1.29c-.778-.833-1.652-1.963-2.492-3.264-.204-.315-.39-.632-.561-.948z" fill="#006B42"/><path d="M15.264 44.06c-.42-.217-.29-.858.18-.887 1.234-.076 3.118-.075 5.146.352.954.2 1.853.428 2.652.667.457.136.88.275 1.265.415l-.364 1.791a27.65 27.65 0 01-3.133-.41c-.29-.053-.586-.112-.886-.175-2.028-.427-3.757-1.186-4.86-1.753z" fill="#00C37A"/><path d="M21.01 45.988l2.232-1.796c.457.136.881.275 1.265.415l-.364 1.791a27.653 27.653 0 01-3.133-.41z" fill="#009655"/><path d="M18.875 49.117L32.804 37.57l2.544 3.267L21.42 52.384l-2.545-3.267z" fill="#A4E869"/><path d="M18.875 49.117l1.686-1.357c.044.047.087.097.127.15l2.298 2.95c.042.055.082.11.119.168l-1.685 1.357-2.545-3.268z" fill="#60DC4D"/><path d="M32.804 37.57l.733.941L19.61 50.058l-.733-.941L32.804 37.57z" fill="#60DC4D"/><path d="M19.836 48.596l2.297 2.95a1.101 1.101 0 01-.174 1.53 1.06 1.06 0 01-1.505-.178l-2.298-2.95a1.101 1.101 0 01.175-1.53 1.06 1.06 0 011.505.178z" fill="#A4E869"/><path d="M34.833 36.445c-1.426 0-2.582 1.175-2.582 2.625s1.156 2.626 2.582 2.626l1.622-.2v-5.05h-1.622z" fill="#F9E8D4"/><path d="M29.243 9.309c.273-.012.52-.018.757-.018 8.823 0 16.21 6.713 17.185 15.615a.682.682 0 00.748.608.686.686 0 00.598-.76 19.086 19.086 0 00-2.568-7.684c1.802-.798 3.02-2.623 3.037-4.662a5.137 5.137 0 00-1.448-3.64 4.971 4.971 0 00-3.554-1.532c-2.082-.017-3.945 1.269-4.715 3.193a18.38 18.38 0 00-10.098-2.496.684.684 0 00-.648.717.68.68 0 00.706.659zm14.744-.696a3.637 3.637 0 012.6 1.12 3.758 3.758 0 011.058 2.663c-.012 1.574-1.003 2.974-2.44 3.5a18.951 18.951 0 00-2.73-3.115 18.747 18.747 0 00-2.02-1.608c.503-1.53 1.923-2.574 3.532-2.56zm3.994 18.397a.678.678 0 00-.706.658c-.375 8.555-6.84 15.552-15.04 16.639l2.333-1.935c.088.007.176.012.265.012a.683.683 0 00.677-.689.683.683 0 00-.677-.688c-1.05 0-1.905-.869-1.905-1.937s.855-1.937 1.905-1.937a.683.683 0 00.677-.688.683.683 0 00-.677-.688c-1.14 0-2.146.599-2.728 1.504l-1.428 1.183V36.26a2.646 2.646 0 001.928-2.557c0-1.46-1.169-2.648-2.605-2.648s-2.605 1.188-2.605 2.648c0 1.222.819 2.253 1.928 2.557v3.308l-3.529 2.925a29.944 29.944 0 00-.585-.945c-1.294-2-2.92-3.423-4.056-4.265a1.115 1.115 0 00-1.297-.031c-.4.267-.59.747-.485 1.222.18.807.47 1.844.932 2.961-4.732-3.25-7.596-8.656-7.596-14.562 0-8.322 5.812-15.567 13.82-17.227a.688.688 0 00.529-.812.677.677 0 00-.8-.537 18.36 18.36 0 00-5.466 2.093c-.706-1.986-2.578-3.372-4.703-3.39h-.045a4.967 4.967 0 00-3.535 1.472A5.137 5.137 0 0011 12.086c-.018 2.138 1.249 4.02 3.151 4.798a19.24 19.24 0 00-2.798 9.988c0 3.553.972 7.017 2.813 10.018a18.895 18.895 0 005.516 5.774 20.878 20.878 0 00-4.28-.178 1.13 1.13 0 00-1.045.921 1.15 1.15 0 00.6 1.267c1.131.582 2.922 1.37 5.03 1.813.269.056.534.108.799.157l-1.168.968a1.718 1.718 0 00-1.707.266 1.773 1.773 0 00-.651 1.188 1.79 1.79 0 00.365 1.309l2.298 2.95a1.73 1.73 0 002.456.29c.366-.294.598-.716.651-1.187a1.814 1.814 0 00-.01-.482l7.395-6.13a.66.66 0 00.118.007c4.723-.135 9.18-2.067 12.55-5.441a19.031 19.031 0 005.545-12.653.684.684 0 00-.647-.718zM28.75 33.703c0-.7.561-1.271 1.25-1.271.69 0 1.251.57 1.251 1.271s-.56 1.272-1.25 1.272-1.25-.57-1.25-1.272zM12.355 12.098a3.76 3.76 0 011.103-2.644 3.626 3.626 0 012.618-1.077c1.654.014 3.098 1.16 3.529 2.76a18.827 18.827 0 00-4.673 4.569c-1.541-.492-2.59-1.944-2.577-3.608zm20.704 29.75L22.354 50.72l-1.703-2.188 10.946-9.075c.115 1 .67 1.864 1.461 2.39zm-8.98.455c.227.353.446.71.656 1.068l-1.193.988c-.27-.374-.537-.764-.797-1.165-1.037-1.605-1.61-3.299-1.907-4.426.9.723 2.202 1.93 3.24 3.535zM20.26 45.14a18.669 18.669 0 01-3.909-1.313 18.72 18.72 0 014.1.373c.531.111 1.058.235 1.572.368.154.226.31.448.466.664l-.307.255a34.949 34.949 0 01-1.922-.347zm1.424 7.13a.4.4 0 01-.147.267.39.39 0 01-.553-.065l-2.298-2.95a.403.403 0 01.308-.65.398.398 0 01.31.152l2.297 2.95a.402.402 0 01.083.296z" fill="#000"/><path d="M31.501 29.232c.987 3.22 2.798 5.66 4.844 6.528a4.167 4.167 0 001.63.343c.639 0 1.269-.159 1.87-.476 1.046-.552 1.776-1.62 2.112-3.089.589-2.578-.123-6.213-1.62-8.275-2.233-3.076-6.213-1.609-6.38-1.545-.262.102-3.951 1.633-2.456 6.514zm1.65-4.23a3.194 3.194 0 011.27-.99l.008-.003c.13-.049 3.196-1.164 4.819 1.072 1.267 1.746 1.89 4.951 1.39 7.146-.17.742-.553 1.722-1.417 2.178-.754.398-1.547.426-2.355.084-1.655-.702-3.216-2.873-4.072-5.666-.486-1.59-.366-2.875.357-3.821zm-7.107-2.284c-.169-.064-4.149-1.53-6.381 1.545-.503.692-.938 1.599-1.258 2.622a.69.69 0 00.44.865.675.675 0 00.85-.447c.276-.882.642-1.65 1.057-2.222 1.623-2.236 4.69-1.12 4.818-1.073l.014.005c.114.04 2.778 1.033 1.621 4.81-.855 2.793-2.416 4.964-4.072 5.666-.808.342-1.6.314-2.354-.084-1.107-.584-1.695-2.23-1.575-4.403a.685.685 0 00-.638-.727.681.681 0 00-.714.649c-.154 2.77.685 4.85 2.303 5.703a3.977 3.977 0 001.87.476 4.16 4.16 0 001.63-.343c2.046-.868 3.857-3.308 4.843-6.528 1.496-4.881-2.193-6.412-2.454-6.514z" fill="#000"/><path d="M33.94 29.616a.683.683 0 00.678-.689v-.058a.683.683 0 00-.678-.689.683.683 0 00-.677.689v.058c0 .38.303.689.677.689zm-7.203-.689v-.058a.683.683 0 00-.677-.689.683.683 0 00-.678.689v.058c0 .38.303.689.677.689a.683.683 0 00.678-.689z" fill="#000"/></svg>
